packages/core/src/svgs/tokens/branded/SFD.svg

<svg width="24" height="24" viewBox="0 0 24 24" fill="none" xmlns="http://www.w3.org/2000/svg">
<path d="M11.4735 2L10.1946 3.76316V4.35264C8.51043 4.82632 5.28412 6.51053 3.87885 7.29473C3.87885 8.9421 4.47886 13.079 4.78412 14.9421L4.47886 15.2368L3.57886 17.2894L6.28411 15.5316C5.56306 13.6473 5.58412 9.6474 5.68411 7.88421C7.12622 6.70526 10.1683 5.82105 11.4735 5.53158V2Z" fill="url(#paint0_linear_364_2710)"/>
<path d="M12.5264 2L13.8053 3.76316V4.35264C15.4896 4.82632 18.7158 6.51053 20.1211 7.29473C20.1211 8.9421 19.5211 13.079 19.2158 14.9421L19.5211 15.2368L20.4211 17.2894L17.7158 15.5316C18.4368 13.6473 18.4158 9.6474 18.3159 7.88421C16.8737 6.70526 13.8316 5.82105 12.5264 5.53158V2Z" fill="url(#paint1_linear_364_2710)"/>
<path d="M6.88943 16.4105L3.87891 18.1789L6.28418 18.4684L6.58417 18.1789C7.78944 20.0526 10.6947 21.5106 11.9999 22C14.8895 20.821 16.8105 18.9632 17.4157 18.1789L17.7157 18.4684L20.121 18.1789L17.1104 16.4105C16.1525 18.5316 13.3052 20.0422 11.9999 20.5316C9.3526 19.8211 7.48943 17.4895 6.88943 16.4105Z" fill="url(#paint2_linear_364_2710)"/>
<path d="M12.0631 5.15784C9.81049 5.15784 6.43677 6.35258 5.49992 7.55257C3.74729 16.1737 9.07887 19.9841 11.9999 20.6841C18.8736 18.8894 19.2472 11.7421 18.6262 7.55257C17.3684 6.05257 14.3105 5.15784 12.0631 5.15784Z" fill="#303435"/>
<path d="M10.4208 9.93162C11.1367 9.70001 11.3734 9.64216 11.4735 9.64216V6.21057C9.80508 6.43689 7.40505 7.64216 6.41031 8.21058C5.93663 9.35794 6.41031 12.3158 6.71032 13.6474C7.42611 13.1896 9.52611 12.5053 10.4208 12.2158V16.7948C9.23137 16.5632 8.19979 14.7948 7.89979 13.9316L6.71032 14.5106C7.42611 17.479 10.1841 18.9842 11.4735 19.3685V10.5001C10.0418 10.5001 8.384 11.1843 7.78926 11.4737V9.36847L10.4208 8.21058V9.93162Z" fill="#CACAD4"/>
<path fill-rule="evenodd" clip-rule="evenodd" d="M12.5264 6.21057V19.3685C13.7474 18.8948 16.3685 17.3106 17.1053 14.7895C17.6674 12.6447 17.8736 10.4222 17.7158 8.21058C16.1929 7.09748 14.4024 6.40744 12.5264 6.21057ZM13.5789 7.78952V17.2632C14.7526 16.5264 17.0211 13.7895 16.7052 8.73689C16.0579 8.4211 14.5158 7.78952 13.5789 7.78952Z" fill="#949398"/>
<defs>
<linearGradient id="paint0_linear_364_2710" x1="11.9213" y1="2" x2="11.9213" y2="22.0069" gradientUnits="userSpaceOnUse">
<stop stop-color="#1BA9D1"/>
<stop offset="1" stop-color="#126DB0"/>
</linearGradient>
<linearGradient id="paint1_linear_364_2710" x1="12.0786" y1="2" x2="12.0786" y2="22.0069" gradientUnits="userSpaceOnUse">
<stop stop-color="#1AA3CB"/>
<stop offset="1" stop-color="#126DB1"/>
</linearGradient>
<linearGradient id="paint2_linear_364_2710" x1="11.9999" y1="2.00003" x2="11.9999" y2="22" gradientUnits="userSpaceOnUse">
<stop stop-color="#1868A7"/>
<stop offset="1" stop-color="#0E59AB"/>
</linearGradient>
</defs>
</svg>

<svg xmlns="http://www.w3.org/2000/svg" width="24" height="24" fill="none" viewBox="0 0 24 24">
    <path fill="url(#SFD__a)" d="m11.474 2-1.28 1.763v.59C8.51 4.826 5.285 6.51 3.88 7.295c0 1.647.6 5.784.905 7.647l-.305.295-.9 2.052 2.705-1.757c-.72-1.885-.7-5.885-.6-7.648 1.442-1.179 4.484-2.063 5.79-2.352z"/>
    <path fill="url(#SFD__b)" d="m12.526 2 1.28 1.763v.59c1.684.473 4.91 2.158 6.315 2.942 0 1.647-.6 5.784-.905 7.647l.305.295.9 2.052-2.705-1.757c.72-1.885.7-5.885.6-7.648-1.442-1.179-4.484-2.063-5.79-2.352z"/>
    <path fill="url(#SFD__c)" d="m6.89 16.41-3.012 1.77 2.405.29.3-.29C7.79 20.053 10.694 21.51 12 22c2.89-1.179 4.81-3.037 5.416-3.821l.3.29 2.405-.29-3.01-1.768c-.959 2.12-3.806 3.631-5.111 4.12-2.647-.71-4.51-3.041-5.11-4.12"/>
    <path fill="#303435" d="M12.063 5.158c-2.253 0-5.626 1.195-6.563 2.395-1.753 8.62 3.579 12.431 6.5 13.131 6.874-1.795 7.247-8.942 6.626-13.131-1.258-1.5-4.316-2.395-6.563-2.395"/>
    <path fill="#CACAD4" d="M10.42 9.932c.717-.232.953-.29 1.053-.29V6.211c-1.668.226-4.068 1.431-5.063 2-.473 1.147 0 4.105.3 5.436.716-.457 2.816-1.142 3.71-1.431v4.579c-1.189-.232-2.22-2-2.52-2.863l-1.19.579c.716 2.968 3.474 4.473 4.764 4.858V10.5c-1.432 0-3.09.684-3.685.974V9.368l2.632-1.157z"/>
    <path fill="#949398" fill-rule="evenodd" d="M12.526 6.21v13.16c1.221-.474 3.843-2.058 4.58-4.58a20.3 20.3 0 0 0 .61-6.578 10.7 10.7 0 0 0-5.19-2m1.053 1.58v9.473c1.174-.737 3.442-3.474 3.126-8.526-.647-.316-2.19-.947-3.126-.947" clip-rule="evenodd"/>
    <defs>
        <linearGradient id="SFD__a" x1="11.921" x2="11.921" y1="2" y2="22.007" gradientUnits="userSpaceOnUse">
            <stop stop-color="#1BA9D1"/>
            <stop offset="1" stop-color="#126DB0"/>
        </linearGradient>
        <linearGradient id="SFD__b" x1="12.079" x2="12.079" y1="2" y2="22.007" gradientUnits="userSpaceOnUse">
            <stop stop-color="#1AA3CB"/>
            <stop offset="1" stop-color="#126DB1"/>
        </linearGradient>
        <linearGradient id="SFD__c" x1="12" x2="12" y1="2" y2="22" gradientUnits="userSpaceOnUse">
            <stop stop-color="#1868A7"/>
            <stop offset="1" stop-color="#0E59AB"/>
        </linearGradient>
    </defs>
</svg>
